X:1
T:Si credis Christo
T:Daniel Friderici
T:Source : Bicinia sacra---Rostock---J.Richelius---1642. Editor :  André Vierendeels (13/07/17).
T:Notes : Original clefs G2, G2 Editorial accidentals above the staff Dotted brackets indicate black notes Original note values have been quartered in 3-beat measures
T:Si credis Christo
T:©
T:©
C:Daniel Friderici
Z:©
%%score [ 1 2 ]
L:1/8
Q:1/4=120
M:2/2
K:C
V:1 treble nm="Soprano 1" snm="S 1"
V:2 treble nm="Soprano 2" snm="S 2"
V:1
 c4 B2 G2 | A4 G4 | z2 c2 B2 G2 | A4 G2 d2 | c2 A2 B4 | A4 z2 d2 | c2 A2 B4 | A2 c2 d2 d2 | e4 f4 | %9
w: Si cre- dis|Chri- sto,|si cre- dis|Chri- sto, si|cre- dis Chri-|sto, si|cre- dis Chri-|sto, si cre- dis|Chri- sto|
 c2 d2 e4 | f2 c4 d2 | e6 c2 | g3 f e2 de | dc c3 B/A/ B2 | c8 ::[M:6/4] d2 d2 d2 d2 e4 | %16
w: po- tes al-|ter, po- tes|al- ter|re- gi- us es- *||se:|Sen- tit o- pem cer-|
 d4 z2 d2 d2 d2 |[M:3/4] e2 ^f4 |[M:2/2] g8 | z4 z2 g2 | e3 f g2 e2 | z4 z2 g2 | e3 f g2 e2 | %23
w: tè, sen- tit o-|pem cer-|tè,|sit|mo- do cer- ta,|sit|mo- do cer- ta|
 d4 c4 | f6 e2 | d2 c2 f2 e2 | d2 c2 fedc | B2 e2 d4 | c8 :| %29
w: fi- des,|cer- ta|fi- des, cer- ta|fi- des, cer- * * *|* ta fi-|des.|
V:2
 z8 | c4 B2 G2 | A4 G4 | z2 c2 B2 G2 | A4 G2 d2 | c2 A2 B4 | A4 z2 d2 | c2 A2 B4 | A2 c2 d2 d2 | %9
w: |Si cre- dis|Chri- sto,|si cre- dis|Chri- sto, si|cre- dis Chri-|sto, si|cre- dis Chri-|sto, si cre- dis|
 e4 c4 | d2 e2 f4 | c2 g3 f e2 | c2 de dcBA | B2 e2 d4 | c8 ::[M:6/4] B2 B2 B2 B2 c4 | %16
w: Chri- sto|po- tes al-|ter re- gi- us|es- * * * * * *||se:|Sen- tit o- pem cer-|
 B4 z2 B2 B2 B2 |[M:3/4] ^c2 d4 |[M:2/2] G6 g2 | e3 f g2 e2 | z4 z2 g2 | e3 f g2 e2 | cBcd e2 c2 | %23
w: tè, sen- tit o-|pem cer-|tè sit|mo- do cer- ta,|sit|mo- do cer- ta|fi- * * * * des,|
 f6 e2 | d6 c2 | f2 e2 d2 c2 | f2 e2 dcde | d2 c3 B/A/ B2 | c8 :| %29
w: cer- ta|fi- des,|cer- ta fi- des,|cer- ta fi- * * *||des|

